icons/smiley-grin-16.svg

<svg width="16" height="16" viewBox="0 0 16 16" fill="none" xmlns="http://www.w3.org/2000/svg">
<g clip-path="url(#clip0_55_850)">
<path d="M8 0C10.1217 0 12.1569 0.842494 13.6572 2.34277C15.1574 3.84306 16 5.87827 16 8C16 10.1217 15.1574 12.1569 13.6572 13.6572C12.1569 15.1574 10.1217 16 8 16C5.87827 16 3.84306 15.1574 2.34277 13.6572C0.842494 12.1569 0 10.1217 0 8C0 5.87827 0.842478 3.84306 2.34277 2.34277C3.84306 0.842478 5.87827 0 8 0ZM8 1.5C6.27609 1.5 4.62328 2.18531 3.4043 3.4043C2.18531 4.62328 1.5 6.27609 1.5 8C1.5 9.72391 2.18531 11.3777 3.4043 12.5967C4.62323 13.8154 6.27632 14.5 8 14.5C9.72391 14.5 11.3777 13.8157 12.5967 12.5967C13.8157 11.3777 14.5 9.72391 14.5 8C14.5 6.27632 13.8154 4.62323 12.5967 3.4043C11.3777 2.18531 9.72391 1.5 8 1.5ZM11 9.25C11.2308 9.25 11.4487 9.35628 11.5908 9.53809C11.7329 9.72006 11.7835 9.95765 11.7275 10.1816C11.518 11.02 10.487 13 8 13C5.51301 13 4.48205 11.02 4.27246 10.1816C4.21654 9.95765 4.2671 9.72006 4.40918 9.53809C4.55132 9.35628 4.76921 9.25 5 9.25H11ZM6.25391 10.75C6.6166 11.1491 7.17844 11.5 8 11.5C8.82156 11.5 9.3834 11.1491 9.74609 10.75H6.25391ZM3.3291 6.16406C4.22364 4.37573 6.77635 4.37574 7.6709 6.16406C7.85613 6.53453 7.70541 6.98564 7.33496 7.1709C6.96457 7.3558 6.51427 7.20529 6.3291 6.83496C5.98735 6.15221 5.01265 6.1522 4.6709 6.83496C4.48574 7.20528 4.03543 7.35578 3.66504 7.1709C3.29462 6.98563 3.14388 6.53451 3.3291 6.16406ZM8.3291 6.16406C9.22364 4.37573 11.7764 4.37573 12.6709 6.16406C12.8562 6.53453 12.7054 6.98564 12.335 7.1709C11.9645 7.3558 11.5142 7.2053 11.3291 6.83496C10.9873 6.15222 10.0127 6.15221 9.6709 6.83496C9.48574 7.20528 9.03543 7.35578 8.66504 7.1709C8.29462 6.98563 8.14388 6.53451 8.3291 6.16406Z" fill="black"/>
</g>
<defs>
<clipPath id="clip0_55_850">
<rect width="16" height="16" fill="white"/>
</clipPath>
</defs>
</svg>

<svg xmlns="http://www.w3.org/2000/svg" width="16" height="16" viewBox="0 0 16 16"><path d="M8 0a7.996 7.996 0 0 1 8 8 8 8 0 1 1-8-8Zm0 1.5a6.5 6.5 0 1 0 0 13 6.5 6.5 0 0 0 0-13Zm3 7.75a.75.75 0 0 1 .727.932C11.518 11.02 10.487 13 8 13s-3.518-1.98-3.728-2.818A.75.75 0 0 1 5 9.25ZM8.329 6.164c.895-1.788 3.447-1.788 4.342 0a.75.75 0 0 1-1.342.671.927.927 0 0 0-1.658 0 .75.75 0 0 1-1.342-.671Zm-5 0c.895-1.788 3.447-1.788 4.342 0a.75.75 0 0 1-1.342.671.927.927 0 0 0-1.658 0 .75.75 0 0 1-1.342-.671Zm2.925 4.586c.363.399.924.75 1.746.75s1.383-.351 1.746-.75Z"/></svg>
